static/images/icons/linkedin.svg

<svg fill="none" height="42" viewBox="0 0 42 42" width="42" xmlns="http://www.w3.org/2000/svg" xmlns:xlink="http://www.w3.org/1999/xlink"><linearGradient id="a" gradientUnits="userSpaceOnUse" x1="8.5" x2="34.5" y1="7" y2="36"><stop offset="0" stop-color="#fec976"/><stop offset=".5" stop-color="#ffea8d"/><stop offset="1" stop-color="#cade39"/></linearGradient><clipPath id="b"><path d="m0 0h42v42h-42z"/></clipPath><g clip-path="url(#b)"><path d="m21 42c11.598 0 21-9.402 21-21 0-11.59798-9.402-21-21-21-11.59798 0-21 9.40202-21 21 0 11.598 9.40202 21 21 21z" fill="url(#a)"/><path d="m9.5 11.1474c0-.91.7561-1.6474 1.6891-1.6474h19.6218c.933 0 1.6891.7374 1.6891 1.6474v19.7052c0 .91-.7561 1.6474-1.6891 1.6474h-19.6218c-.933 0-1.6891-.7374-1.6891-1.6474zm7.1056 17.6065v-10.386h-3.4515v10.386zm-1.725-11.8048c1.2032 0 1.9521-.7963 1.9521-1.794-.0216-1.0192-.7475-1.794-1.9291-1.794-1.1817 0-1.9536.7763-1.9536 1.794 0 .9977.7489 1.794 1.9076 1.794zm7.0552 11.8048v-5.8003c0-.3105.023-.621.115-.8424.2487-.6196.8165-1.2621 1.771-1.2621 1.2492 0 1.748.9516 1.748 2.3488v5.556h3.4514v-5.957c0-3.1913-1.7019-4.6748-3.9732-4.6748-1.8314 0-2.6522 1.0063-3.1122 1.715v.0359h-.023l.023-.0359v-1.4692h-3.45c.0431.9747 0 10.386 0 10.386z" fill="#0e1025"/></g></svg>

<svg width="42" height="42" viewBox="0 0 42 42" fill="none" xmlns="http://www.w3.org/2000/svg">
<g clip-path="url(#clip0_586_4553)">
<path d="M21 42C32.598 42 42 32.598 42 21C42 9.40202 32.598 0 21 0C9.40202 0 0 9.40202 0 21C0 32.598 9.40202 42 21 42Z" fill="url(#paint0_linear_586_4553)"/>
<path d="M9.5 11.1474C9.5 10.2374 10.2561 9.5 11.1891 9.5H30.8109C31.7439 9.5 32.5 10.2374 32.5 11.1474V30.8526C32.5 31.7626 31.7439 32.5 30.8109 32.5H11.1891C10.2561 32.5 9.5 31.7626 9.5 30.8526V11.1474ZM16.6056 28.7539V18.3679H13.1541V28.7539H16.6056ZM14.8806 16.9491C16.0838 16.9491 16.8327 16.1528 16.8327 15.1551C16.8111 14.1359 16.0852 13.3611 14.9036 13.3611C13.7219 13.3611 12.95 14.1374 12.95 15.1551C12.95 16.1528 13.6989 16.9491 14.8576 16.9491H14.8806ZM21.9358 28.7539V22.9536C21.9358 22.6431 21.9588 22.3326 22.0508 22.1112C22.2995 21.4916 22.8673 20.8491 23.8218 20.8491C25.071 20.8491 25.5698 21.8007 25.5698 23.1979V28.7539H29.0212V22.7969C29.0212 19.6056 27.3193 18.1221 25.048 18.1221C23.2166 18.1221 22.3958 19.1284 21.9358 19.8371V19.873H21.9128L21.9358 19.8371V18.3679H18.4858C18.5289 19.3426 18.4858 28.7539 18.4858 28.7539H21.9358Z" fill="#0E1025"/>
</g>
<defs>
<linearGradient id="paint0_linear_586_4553" x1="8.5" y1="7" x2="34.5" y2="36" gradientUnits="userSpaceOnUse">
<stop stop-color="#FEC976"/>
<stop offset="0.5" stop-color="#FFEA8D"/>
<stop offset="1" stop-color="#CADE39"/>
</linearGradient>
<clipPath id="clip0_586_4553">
<rect width="42" height="42" fill="white"/>
</clipPath>
</defs>
</svg>
